svgs/sharp-solid/city.svg

<svg xmlns="http://www.w3.org/2000/svg" viewBox="0 0 640 512"><!--! Font Awesome Pro 6.6.0 by @fontawesome - https://fontawesome.com License - https://fontawesome.com/license (Commercial License) Copyright 2024 Fonticons, Inc. --><path d="M480 0L288 0l0 96-64 0 0-72 0-24L176 0l0 24 0 72-64 0 0-72 0-24L64 0l0 24 0 72L0 96l0 96L0 512l288 0 64 0 128 0 160 0 0-320-160 0L480 0zm96 352l0 64-64 0 0-64 64 0zm-384 0l64 0 0 64-64 0 0-64zm-64 64l-64 0 0-64 64 0 0 64zM512 256l64 0 0 64-64 0 0-64zM64 160l64 0 0 64-64 0 0-64zm192 96l0 64-64 0 0-64 64 0zm0-96l0 64-64 0 0-64 64 0zM64 320l0-64 64 0 0 64-64 0zm352-64l0 64-64 0 0-64 64 0zM352 64l64 0 0 64-64 0 0-64zm64 96l0 64-64 0 0-64 64 0z"/></svg>

<svg xmlns="http://www.w3.org/2000/svg" viewBox="0 0 640 512"><!--! Font Awesome Pro 6.4.2 by @fontawesome - https://fontawesome.com License - https://fontawesome.com/license (Commercial License) Copyright 2023 Fonticons, Inc. --><path d="M480 0H288V96H224V24 0H176V24 96H112V24 0H64V24 96H0v96V512H288h64H480 640V192H480V0zm96 352v64H512V352h64zm-384 0h64v64H192V352zm-64 64H64V352h64v64zM512 256h64v64H512V256zM64 160h64v64H64V160zm192 96v64H192V256h64zm0-96v64H192V160h64zM64 320V256h64v64H64zm352-64v64H352V256h64zM352 64h64v64H352V64zm64 96v64H352V160h64z"/></svg>
